icons/speech-bubble-percent.svg

<svg xmlns="http://www.w3.org/2000/svg" width="24" height="24" viewBox="0 0 24 24">
  <path d="M15,3 C19.5522847,3 23,6.44771525 23,11 C23,15.5522847 19.5522847,19 15,19 L15,19 L14.492,19 L14.4215793,19.0906275 C13.7103901,19.9663638 12.948642,20.6393906 11.8907103,21.256749 L11.8907103,21.256749 L11.5946555,21.4238497 L11.2369286,21.6140163 L10.9086251,21.7821926 C9.57755795,22.4597178 8,21.4937799 8,20 L8,20 L8,19 C4.27285013,19 1,15.3634999 1,11 C1,6.5377729 4.49099359,3 9,3 L9,3 Z M15.7071068,13.2928932 C15.3165825,12.9023689 14.6834175,12.9023689 14.2928932,13.2928932 C13.9023689,13.6834175 13.9023689,14.3165825 14.2928932,14.7071068 C14.6834175,15.0976311 15.3165825,15.0976311 15.7071068,14.7071068 C16.0976311,14.3165825 16.0976311,13.6834175 15.7071068,13.2928932 Z M15.7071068,7.29289322 C15.3165825,6.90236893 14.6834175,6.90236893 14.2928932,7.29289322 L14.2928932,7.29289322 L8.29289322,13.2928932 L8.20970461,13.3871006 C7.90467972,13.7793918 7.93240926,14.3466228 8.29289322,14.7071068 C8.68341751,15.0976311 9.31658249,15.0976311 9.70710678,14.7071068 L9.70710678,14.7071068 L15.7071068,8.70710678 L15.7902954,8.61289944 C16.0953203,8.22060824 16.0675907,7.65337718 15.7071068,7.29289322 Z M9.70710678,7.29289322 C9.31658249,6.90236893 8.68341751,6.90236893 8.29289322,7.29289322 C7.90236893,7.68341751 7.90236893,8.31658249 8.29289322,8.70710678 C8.68341751,9.09763107 9.31658249,9.09763107 9.70710678,8.70710678 C10.0976311,8.31658249 10.0976311,7.68341751 9.70710678,7.29289322 Z"/>
</svg>

<svg xmlns="http://www.w3.org/2000/svg" viewBox="0 0 24 24">
  <path d="M15 3c4.55 0 8 3.45 8 8s-3.45 8-8 8h-.5l-.08.1a8.85 8.85 0 0 1-2.53 2.16l-.3.16-.35.2-.33.16A2 2 0 0 1 8 20v-1c-3.73 0-7-3.64-7-8 0-4.46 3.5-8 8-8zm.7 10.3a1 1 0 1 0-1.4 1.4 1 1 0 0 0 1.4-1.4zm0-6a1 1 0 0 0-1.4 0l-6 6-.09.09a1 1 0 0 0 1.5 1.32l6-6 .08-.1a1 1 0 0 0-.08-1.32zm-6 0a1 1 0 1 0-1.4 1.4 1 1 0 0 0 1.4-1.4z"/>
</svg>
